X: 17
M: 6/8
L: 1/8
Q: "Fairly Steady"
K: D
|:\
k[d3D2] [A3D2] | k[AD][FD]D D3 | d3 A2F | k[D2G,2]g f(uef) |\
d3 A3 | AFD D2(F | E2)(F G2)A | {Bc}B3 ABc :|
|:\
d2e f2d | c2e ecA | d2e f2d | g3 f2(g |\
a2)(f g2)(e | f2)(d e2)(c | d2)A F2A | {Bc}B3 ABc :|
years ago made up dis t\"un whan he stod ida door o' his croft at
sailed alang.  Da ship wis a brigantine so he caaed da t\"un "Da


